resources/svg/bug-o.svg

<svg xmlns="http://www.w3.org/2000/svg" viewBox="0 0 15 15" fill="none"><path d="M4.5 4.5H10.5M4.5 4.5L4.13344 5.23313C3.71687 6.06626 3.5 6.98494 3.5 7.91641V10.5C3.5 12.7091 5.29086 14.5 7.5 14.5C9.70914 14.5 11.5 12.7091 11.5 10.5V7.91641C11.5 6.98494 11.2831 6.06626 10.8666 5.23313L10.5 4.5M4.5 4.5V3.5C4.5 1.84315 5.84315 0.5 7.5 0.5C9.15685 0.5 10.5 1.84315 10.5 3.5V4.5M0 8.5H3.5M15 8.5H11.5M1 14L4 12.5M14 14L11 12.5M1 3L4 4.5M14 3L11 4.5" stroke="black"/></svg>

<svg xmlns="http://www.w3.org/2000/svg" viewBox="0 0 15 15" fill="none"><path d="M4.5 4.5h6m-6 0l-.367.733A6 6 0 003.5 7.916V10.5a4 4 0 008 0V7.916a6 6 0 00-.633-2.683L10.5 4.5m-6 0v-1a3 3 0 016 0v1M0 8.5h3.5m11.5 0h-3.5M1 14l3-1.5M14 14l-3-1.5M1 3l3 1.5M14 3l-3 1.5" stroke="currentColor"/></svg>
